dist/img/advice.svg

<svg width="100" height="100" viewBox="0 0 100 100" fill="none" xmlns="http://www.w3.org/2000/svg">
<g clip-path="url(#clip0)">
<path d="M96.9253 55.4297C95.9494 54.2784 94.5839 53.5759 93.0797 53.4516C91.5762 53.3273 90.1132 53.7964 88.9619 54.7721L88.2047 55.4138C88.0226 54.4759 87.604 53.5953 86.9693 52.8463C84.955 50.4698 81.3828 50.1748 79.0059 52.1889L78.3316 52.7603C78.1429 51.8704 77.7367 51.0139 77.1082 50.272C75.0938 47.8953 71.5211 47.6003 69.1447 49.6146L57.8457 59.1902C57.2655 59.026 56.6544 58.9362 56.0223 58.9362H35.7212C31.1629 58.9362 26.7171 60.2241 22.8647 62.6605C19.0122 65.097 15.9434 68.5616 13.9896 72.6802L13.2983 74.1379L2.0526 88.3333C1.54847 88.9697 1.65569 89.8942 2.29211 90.3983C2.56221 90.6124 2.88424 90.7163 3.20392 90.7163C3.63748 90.7163 4.06693 90.5252 4.35721 90.159L15.707 75.8321C15.7762 75.7449 15.8352 75.6498 15.8828 75.5493L16.6461 73.9403C20.1224 66.6117 27.6099 61.8762 35.7212 61.8762H56.0225C58.0979 61.8762 59.7865 63.5648 59.7865 65.6405C59.7865 66.6619 59.3843 67.6178 58.6542 68.332C57.9451 69.0257 57.0148 69.4048 56.0266 69.4048C55.998 69.4048 42.8053 69.4034 42.8053 69.4034C41.9935 69.4034 41.3353 70.0616 41.3353 70.8734C41.3353 71.6853 41.9935 72.3434 42.8053 72.3434H55.8925C57.7052 72.3766 59.4143 71.7015 60.7101 70.434C60.8953 70.2529 61.0672 70.062 61.2285 69.8642H73.6497C74.9727 69.8642 76.2571 69.3932 77.2661 68.5378L90.8627 57.015C91.4151 56.5469 92.1185 56.3213 92.8379 56.3817C93.5594 56.4413 94.2144 56.7782 94.6825 57.3305C95.1505 57.8827 95.3755 58.5842 95.3159 59.3057C95.2562 60.0271 94.9194 60.6822 94.3671 61.1502L72.9035 79.3404C70.9003 81.038 68.4636 82.1009 65.8566 82.4147L61.9823 82.8808C61.1762 82.9778 60.6013 83.7097 60.6983 84.5159C60.7881 85.2625 61.4224 85.8105 62.156 85.8105C62.2146 85.8105 62.274 85.807 62.3334 85.7997L66.2076 85.3336C69.388 84.951 72.3607 83.6542 74.8041 81.5833L96.2677 63.3933C97.4193 62.4176 98.1217 61.0519 98.2458 59.5477C98.3701 58.0436 97.901 56.5812 96.9253 55.4297ZM71.0456 51.8579C72.1851 50.892 73.8994 51.0331 74.8655 52.1733C75.7559 53.2242 75.7212 54.7541 74.7935 55.759L62.7174 65.9935C62.7234 65.8765 62.7268 65.7589 62.7268 65.6409C62.7268 63.702 61.8987 61.9539 60.5786 60.7286L71.0456 51.8579ZM66.1662 66.9243L80.9065 54.4322C82.0467 53.4661 83.7603 53.6076 84.7262 54.7474C85.1943 55.2997 85.4193 56.0012 85.3597 56.7227C85.2999 57.4442 84.9632 58.0993 84.4109 58.5673L75.3649 66.2952C74.8863 66.7009 74.2769 66.9243 73.6493 66.9243H66.1662Z" fill="black"/>
<path d="M55.7175 83.6342L41.889 85.2977C41.5172 85.3424 41.1763 85.5274 40.9364 85.8148L31.1025 97.5876C30.5819 98.2107 30.6652 99.1378 31.2883 99.6581C31.5633 99.8879 31.8975 100 32.2299 100C32.6506 100 33.0682 99.8204 33.3589 99.4723L42.8192 88.1468L56.0687 86.5531C56.8747 86.4561 57.4497 85.7242 57.3527 84.918C57.2555 84.1121 56.5217 83.5372 55.7175 83.6342Z" fill="black"/>
<path d="M26.2285 44.7214H29.7466L32.0014 49.7865C32.4587 50.814 33.4416 51.4522 34.5661 51.4522C35.6908 51.4522 36.6734 50.814 37.1306 49.7865L39.3855 44.7214H46.9153C47.7272 44.7214 48.3854 44.0632 48.3854 43.2514C48.3854 42.4395 47.7272 41.7814 46.9153 41.7814H38.4307C37.8502 41.7814 37.3239 42.1232 37.0877 42.6536L34.5659 48.3183L32.0441 42.6536C31.808 42.1232 31.2819 41.7814 30.7011 41.7814H26.2283C21.1873 41.7814 17.0861 37.6802 17.0861 32.6392V12.0823C17.0865 7.04124 21.1877 2.94006 26.2285 2.94006H59.242C64.2831 2.94006 68.3842 7.04124 68.3842 12.0823V32.6392C68.3842 37.6802 64.2831 41.7814 59.242 41.7814H53.1802C52.3682 41.7814 51.7102 42.4395 51.7102 43.2514C51.7102 44.0632 52.3682 44.7214 53.1802 44.7214H59.242C65.9042 44.7214 71.3243 39.3013 71.3243 32.6392V12.0823C71.3241 5.42009 65.9042 0 59.242 0H26.2285C19.5663 0 14.1462 5.42009 14.1462 12.0823V32.6392C14.1464 39.3013 19.5665 44.7214 26.2285 44.7214Z" fill="black"/>
<path d="M33.53 14.0235C32.8656 13.5568 31.9489 13.7173 31.4822 14.3818C29.8518 16.7035 28.99 19.4314 28.99 22.2709C28.99 29.85 35.1561 36.0161 42.7353 36.0161C50.3146 36.0161 56.4807 29.85 56.4807 22.2709C56.4807 20.1445 55.995 18.1294 55.1293 16.3303L59.8355 11.8326C60.4225 11.2716 60.4437 10.3412 59.8825 9.75414C59.3214 9.16711 58.391 9.14594 57.8041 9.7069L53.5365 13.7852C51.0177 10.5858 47.1137 8.52539 42.7352 8.52539C40.6757 8.52539 38.6928 8.9715 36.8417 9.85136C36.1085 10.1999 35.7964 11.0768 36.1449 11.81C36.4934 12.5433 37.3703 12.8553 38.1036 12.5068C39.5573 11.8159 41.1156 11.4656 42.735 11.4656C46.2793 11.4656 49.43 13.1813 51.4017 15.8254L42.2302 24.5903L40.3821 22.7421C39.808 22.168 38.8772 22.168 38.3033 22.7421C37.7292 23.3162 37.7292 24.2471 38.3033 24.821L41.1675 27.6852C41.4543 27.9719 41.8304 28.1158 42.2071 28.1158C42.5725 28.1158 42.9382 27.9803 43.2226 27.7085L52.8595 18.4989C53.2988 19.6739 53.5403 20.9446 53.5403 22.2708C53.5403 28.2287 48.6931 33.0759 42.735 33.0759C36.7768 33.0759 31.9297 28.2287 31.9297 22.2708C31.9297 20.0392 32.6069 17.8956 33.8877 16.0713C34.3548 15.4069 34.1945 14.49 33.53 14.0235Z" fill="black"/>
</g>
<defs>
<clipPath id="clip0">
<rect width="100" height="100" fill="white"/>
</clipPath>
</defs>
</svg>

<svg width="100" height="100" fill="none" xmlns="http://www.w3.org/2000/svg"><g clip-path="url(#clip0)" fill="#000"><path d="M96.925 55.43a5.614 5.614 0 00-3.845-1.978 5.613 5.613 0 00-4.118 1.32l-.757.642a5.617 5.617 0 00-1.236-2.568 5.657 5.657 0 00-7.963-.657l-.674.571a5.657 5.657 0 00-9.187-3.146l-11.3 9.576a6.685 6.685 0 00-1.823-.254h-20.3a24.019 24.019 0 00-12.857 3.724 24.019 24.019 0 00-8.875 10.02l-.692 1.458L2.053 88.333a1.47 1.47 0 102.304 1.826l11.35-14.327c.07-.087.128-.182.176-.283l.763-1.609c3.476-7.328 10.964-12.064 19.075-12.064h20.302a3.768 3.768 0 013.763 3.765 3.737 3.737 0 01-1.132 2.691 3.731 3.731 0 01-2.627 1.073l-13.222-.002a1.47 1.47 0 000 2.94h13.087a6.658 6.658 0 005.336-2.479H73.65a5.599 5.599 0 003.616-1.326l13.597-11.523a2.691 2.691 0 011.975-.633c.721.06 1.376.396 1.845.949.467.552.692 1.253.633 1.975a2.693 2.693 0 01-.949 1.844L72.903 79.34a13.333 13.333 0 01-7.046 3.075l-3.875.466a1.47 1.47 0 10.351 2.919l3.875-.466a16.262 16.262 0 008.596-3.75l21.464-18.19a5.612 5.612 0 001.978-3.846 5.613 5.613 0 00-1.32-4.118zm-25.88-3.572a2.714 2.714 0 013.82.315 2.699 2.699 0 01-.072 3.586L62.717 65.993a6.686 6.686 0 00-2.139-5.265l10.468-8.87zm-4.879 15.066l14.74-12.492a2.713 2.713 0 013.82.315c.468.553.693 1.254.634 1.976a2.693 2.693 0 01-.95 1.844l-9.045 7.728a2.656 2.656 0 01-1.716.63h-7.483z"/><path d="M55.718 83.634l-13.829 1.664a1.47 1.47 0 00-.953.517l-9.834 11.773a1.47 1.47 0 102.257 1.884l9.46-11.325 13.25-1.594a1.47 1.47 0 10-.352-2.919zM26.229 44.721h3.518L32 49.787a2.774 2.774 0 002.565 1.665 2.774 2.774 0 002.565-1.666l2.255-5.065h7.53a1.47 1.47 0 100-2.94H38.43a1.47 1.47 0 00-1.343.873l-2.522 5.664-2.522-5.664a1.47 1.47 0 00-1.343-.873h-4.473c-5.04 0-9.142-4.1-9.142-9.142V12.082c0-5.04 4.102-9.142 9.143-9.142h33.013c5.041 0 9.142 4.101 9.142 9.142V32.64c0 5.041-4.1 9.142-9.142 9.142H53.18a1.47 1.47 0 100 2.94h6.062c6.662 0 12.082-5.42 12.082-12.082V12.082C71.324 5.42 65.904 0 59.242 0H26.229c-6.663 0-12.083 5.42-12.083 12.082V32.64c0 6.662 5.42 12.082 12.082 12.082z"/><path d="M33.53 14.024a1.47 1.47 0 00-2.048.358 13.659 13.659 0 00-2.492 7.889c0 7.579 6.166 13.745 13.745 13.745 7.58 0 13.746-6.166 13.746-13.745 0-2.127-.486-4.142-1.352-5.94l4.707-4.498a1.47 1.47 0 10-2.032-2.126l-4.268 4.078c-2.518-3.2-6.422-5.26-10.8-5.26-2.06 0-4.043.447-5.894 1.326a1.47 1.47 0 001.262 2.656 10.706 10.706 0 014.631-1.041c3.544 0 6.695 1.715 8.667 4.36L42.23 24.59l-1.848-1.848a1.47 1.47 0 10-2.079 2.079l2.864 2.864a1.466 1.466 0 002.056.024l9.636-9.21c.44 1.175.681 2.446.681 3.772 0 5.958-4.847 10.805-10.805 10.805-5.958 0-10.805-4.847-10.805-10.805 0-2.232.677-4.375 1.958-6.2a1.47 1.47 0 00-.358-2.048z"/></g><defs><clipPath id="clip0"><path fill="#fff" d="M0 0h100v100H0z"/></clipPath></defs></svg>
